svgs/light/heading.svg

<svg xmlns="http://www.w3.org/2000/svg" viewBox="0 0 448 512"><!--! Font Awesome Pro 6.4.0 by @fontawesome - https://fontawesome.com License - https://fontawesome.com/license (Commercial License) Copyright 2023 Fonticons, Inc. --><path d="M0 48c0-8.8 7.2-16 16-16H80h64c8.8 0 16 7.2 16 16s-7.2 16-16 16H96V224H352V64H304c-8.8 0-16-7.2-16-16s7.2-16 16-16h64 64c8.8 0 16 7.2 16 16s-7.2 16-16 16H384V240 448h48c8.8 0 16 7.2 16 16s-7.2 16-16 16H304c-8.8 0-16-7.2-16-16s7.2-16 16-16h48V256H96V448h48c8.8 0 16 7.2 16 16s-7.2 16-16 16H16c-8.8 0-16-7.2-16-16s7.2-16 16-16H64V240 64H16C7.2 64 0 56.8 0 48z"/></svg>

<svg xmlns="http://www.w3.org/2000/svg" viewBox="0 0 448 512"><!--! Font Awesome Pro 6.3.0 by @fontawesome - https://fontawesome.com License - https://fontawesome.com/license (Commercial License) Copyright 2023 Fonticons, Inc. --><path d="M448 464c0 8.799-7.199 16-16 16h-128c-8.801 0-16-7.201-16-16c0-8.801 7.199-16 16-16H352V256H96v192h48C152.8 448 160 455.2 160 464C160 472.8 152.8 480 144 480h-128C7.199 480 0 472.8 0 464C0 455.2 7.199 448 16 448H64V64H16C7.199 64 0 56.8 0 48C0 39.2 7.199 32 16 32h128C152.8 32 160 39.2 160 48C160 56.8 152.8 64 144 64H96v160h256V64h-48C295.2 64 288 56.8 288 48C288 39.2 295.2 32 304 32h128C440.8 32 448 39.2 448 48C448 56.8 440.8 64 432 64H384v384h48C440.8 448 448 455.2 448 464z"/></svg>
